assets/icons/uE00F-down.svg

<svg xmlns="http://www.w3.org/2000/svg" width="896" height="1232" viewBox="0 0 896 1232"><path d="M12 426q-24-29-4-63 17-27 48-27 7 0 11 1l213 43V112q0-23 16.5-39.5T336 56h224q23 0 39.5 16.5T616 112v268l213-43q4-1 11-1 31 0 48 27 20 34-4 63L492 930q-16 22-44 22t-44-22zm324 22L56 392l392 504 392-504-280 56V112H336v336z"/></svg>

<?xml version="1.0" encoding="UTF-8" standalone="no"?><svg   xmlns:svg="http://www.w3.org/2000/svg"   xmlns="http://www.w3.org/2000/svg"   version="1.1"   width="896"   height="1232"   viewBox="0 0 896 1232">  <path     d="M12 426Q-12 397 8 363Q25 336 56 336Q63 336 67 337L280 380V112Q280 89 296.5 72.5T336 56H560Q583 56 599.5 72.5T616 112V380L829 337Q833 336 840 336Q871 336 888 363Q908 397 884 426L492 930Q476 952 448 952T404 930zM336 448L56 392L448 896L840 392L560 448V112H336V448z"     id="icon77" /></svg>
